X:1
T:Though I Take the Wings of Morning
T:Though I Take the Wings of Morning
T:Op. 152
T:Amy Beach (1867–1944)
T:Robert Spencer (1877–1961)
C:Amy Beach (1867–1944)
Z:Robert Spencer (1877–1961)
%%score 1 { ( 2 3 ) | ( 4 5 ) }
L:1/8
Q:1/4=80
M:4/4
K:G
V:1 treble nm="Voice"
V:2 treble nm="Piano"
V:3 treble 
V:4 bass 
V:5 bass 
V:1
"^Lento con molto espressione" z8 | z8 | z8 | z8 |!pp! (EF)(GA) B3 G | B3 G (BA) G2 | z2 AG E3 D | %7
w: ||||Tho- ugh I * take the|wings of morn- * ing|To the ut- most|
 E6 z2 |!<(! (EF)(GA) B3!<)! B | d3!<(! B (d!<)!e) B2 | z2 A!>(!G A3 F!>)! | B6 z2 | %12
w: sea,|Yet * my * soul hath|no so- journ- * ing|to out- dis- tance|Thee.|
"^cresc.\n" (AB)(cd) e3 c | e3 c (ed) c2 |!<(! d2 c2!<)! A3!f! A | =f6 z2 | %16
w: Though * I * climb to|high- est heav- * en,|'Tis Thy dwell- ing|high;|
!p! =F3 F"^poco rall." c2 B2 |!>(! G2 E2 (GF)!>)! E2 |!pp! (e4 B4- | B2) B2 B3 B |"^a tempo" B8- | %21
w: Though to Death's dark|cham- ber giv- * en,|Thou *|* art stand- ing|by.|
 B4 z4 | z8 | z8 |!pp! (EF)(GA) B3 G | B3 G (BA) G2 |"^cresc." A2 G2 E3 E |!<(! c8!<)! | %28
w: |||If * I * say, the|dark- ness hides * me,|Turns my night to|day;|
 z2"^piu cresc." GG d3 c | d3 B (de) B2 |!<(! B2 A4!<)! FF |!f! ^d6 z2 |!p! e2 B2 e3 B | %33
w: For with Thee no|dark can find * me,|Sha- dows must a-|way!|E- ven so, Thy|
 e3 d (cB) A2 | d2 _A4 AA |!<(! G6 z2!<)! | z2 FF A2 (^c!<(!e)!<)! | f3!ff! f"^sost." (a3 f) | %38
w: hand shll lead * me,|Flee Thee as I|will;|And Thy strong right *|arm shall hold *|
 e6!<(! cd!<)! | (e2 c4) c2 |"^a tempo" B8- |!>(! B6 z2!>)! |!mf! (^c2 B4)!>(! B2 | %43
w: me; Bid me,|then, * be|still,||Bid * me,|
 (^G2"^rit. molto" E6-)!>)! | E z!p! E!>(!E E3!>)!!pp! E |"^lunga" !fermata!E8 |] z8 |] %47
w: then, *|* bid me, then, be|still.||
V:2
!pp! (EF^GA B3 G | B3 ^G BG F2) | (A2 F2 E4- | E4 ^D2) z2 | (EFGA!pp! B4- | B4 BA G2) | %6
 z2 (AG E3 D | E4- E2 D2) | E4!<(! (E2 G2-)!<)! | ([B,GB]2 (([DG-B-d]2)!<(! [EGBe]2)) [Geg]2!<)! | %10
 ([Be-b]2 [Aea]2)!>(! ([Gc-g]2 [Fcf]2) | ([EB-e]2 [DBd]4)!>)! [EAe]2 | %12
!p! [CAc]4 (([EA-e]2 [CAc]2)) | [EGBe]2 [C=FAc]2 (ed c2) | %14
 ([DG-d]2!<(! [CGc]2) [A,=FA]2 [CAc]2!<)! |!f! [=FA=f]4!>(! (f2 c2)!>)! | %16
 ([B,=F-_A-B]2 [CFAc]2) [^D=Ac^d]2 [D_Bd]2 |!>(! [EGce]2 [Gceg]2 [Aea]2 [^Ae^a]2!>)! | %18
!pp! [Befb]2 ([^ce-^c']2 [Beb]2) [Aea]2 | [F^cef]4 ([^G^d^g]2 [Fcf]2) |!p! (EF^GA B3 G | %21
 B3 ^G BG F2) | ([^G,-E]6 [G,^D]2) |[K:bass]!>(! (^C2 =C6)!>)! |!pp! [E,B,E]8- | %25
 [E,B,E]4 [^D,B,^D]4 |[K:treble]!<(! E8-!<)! |[K:treble] E2!<(! [Gce-]4!<)! [Fcef]2 | %28
 ([Gceg][Aa][Bb][cc']) ([dad']3 [cc']) | [dfd']2 [Bdb]2 (([Ad-a]2 [Gdg]2)) | %30
!<(! ([Be-b]2 [Aea]2) [Gceg]2!<)! [Fcef]2 |!>(! [Ac^da]4 (([Gc-d-g]2!>)! [Fcdf]2)) | %32
!p! [GBeg]4 [EBe]4 | [EBe]4 [CGc]4 | [D_Ad]4 [B,=FB]4 |!<(! [^A,E^A]4 [A,EA]4!<)! | %36
!<(! [A,^CEA]2 [CA^c]2 [EAce]2!<)! [FAcf]2 |!f! [F^cf]4 [cea^c']4 | %38
 [ceac']2 (AB [Ac][Bd][Ac][Bd]) | !>![Ace]4 [EAc]4 | (EF"_dim.""_a tempo"^GA B3 G | %41
 B3 ^G!>(! BG F2)!>)! |!p! ((([^G,E]4 [G,^D]4))) | %43
[K:bass] [E,^G,D]4"_rit. molto" ([E,-A,-^C]2 [E,A,=C]2) | %44
[K:bass]!pp!!>(! ([G,-C]4 [G,B,]2!>)! [F,A,]2) | !fermata![B,,E,^G,]8 |] z8 |] %47
V:3
 E4 ^D2 ^C2 | ^D2 ^C2 B,2 A,2 | ^C2 A,2 C2 =C2- | [A,C]6 x2 | x4 z2 E2 | D2 C2- C4 | B,4 A,4 | %7
 (((G,4 (([F,B,]4))) | [E,B,]2)) [F,A,]2 B,4 | x8 | x8 | x8 | x8 | x4 [E-_A]2 E2 | x8 | %15
 x4 [=F_A]4 | x8 | x8 | x8 | x8 | [EB]4 ^D2 ^C2 | ^D2 ^C2 B,2 A,2 | x8 | %23
[K:bass] [E,^G,]4 ([E,A,-]2 [^D,A,]2) | x8 | x8 |[K:treble] (E2 D2 C4) |[K:treble] [G,C]2 x6 | x8 | %29
 x8 | x8 | x8 | x8 | x8 | x8 | x8 | x8 | x8 | x8 | x8 | E4 ^D2 ^C2 | ^D2 ^C2 B,2 A,2 | x8 | %43
[K:bass] x8 |[K:bass] x8 | x8 |] x8 |] %47
V:4
 (E,F,^G,A, G,2 E,2 | F,2 E,2 ^D,2 ^C,2) | E,2 ^C,2 ^G,2 =G,2 | F,6 z2 |"^sempre" (E,F,G,A, B,4- | %5
 B,4 B,A, G,2) | (_E,2 D,2 C,2 B,,2- | ([E,,B,,])F,,G,,A,, B,,2) B,,,2 | [C,,C,]4 E,4- | %9
 E,2 [E,G,B,]4 [D,G,B,]2 | [C,G,E]4 [A,,E,C]4 | ([B,,F,]^C,D,E, [B,,F,]2) [G,,=F,]2 | %12
 [A,,E,]4"^cresc." [=F,,C,A,]4 | [E,,E,]2 [D,,D,]2 [C,,C,]2 [C,G,]2 | E,4 C,4 | %15
 ([E,,E,]2 [D,,D,]2) [G,,,G,,]2 [D,_A,C]2 | ([D,,D,]2 [C,,C,]2)"^poco rall." [B,,,B,,]2 [B,,G,]2 | %17
 [A,,,A,,]2 [E,CE]2 [F,,,F,,]2 [F,CE]2 | [B,,,B,,]2 [F,A,E]4 [F,^CE]2 | %19
 [A,^CE]2 [B,,,B,,]2 ([B,^D-]2 [A,D]2) |"^a tempo, dolce" (^G,6 E,2 | F,2 E,2 ^D,2 ^C,2) | %22
 ([E,,B,,]F,,^G,,A,, B,,3 G,, | B,,3 ^G,, B,,G,, F,,2) | [C,,G,,]8- | [C,,G,,]8 | E,8 | %27
 [D,,A,,]2 (A,2- [A,,A,]2) [D,A,]2 | D,,2"^piu cresc." [E,CE]4 ([F,-CE]2 | %29
 [F,B,D]2) D,,2 ([D,B,-D-]2 [E,B,D]2) | [E,A,C]2 F,,2 [A,,E,C]2 [A,CE]2 | [F,C^D]2 B,,2 [A,CD]4 | %32
 [G,B,E]2 G,,2 [=F,A,B,]4 | [E,G,B,]4 [E,G,A,]4 | [=F,B,]4 [D,_A,]4 | [^C,G,]4 [C,G,]4 | %36
 z2"^rit." [F,A,]4 [A,^CE]2 | [A,^C^D]4 [F,A,CE]4 | [F,A,CE]8 | !>![G,A,CE]4 [F,A,C]4 | %40
 ([^G,B,]6 E,2 | F,2 E,2 ^D,2 ^C,2) | ([E,,B,,]F,,^G,,A,, B,,3 G,, | B,,3 ^G,, B,,G,, F,,2) | %44
 E,,8 |"^lunga" [E,,,E,,]8 |] z8 |] %47
V:5
 z4 B,,4- | B,,8- | B,,8- | B,,6 x2 | x4 z2 [C,G,]2 | [B,,-F,]2 [B,,E,]2 A,,4 | (G,,4 F,,4) | x8 | %8
 x4 (G,,2 F,,2 | E,,2) x6 | x8 | x8 | x8 | x8 | (B,,2 A,,2) G,,2 =F,,2 | x8 | x8 | x8 | x8 | x8 | %20
 B,,8- | B,,8 | x8 | x8 | x8 | x8 | (C,2 B,,2 A,,2 G,,2) | x8 | x8 | x8 | x8 | x8 | %32
 x6 [G,,,G,,]2- | [G,,,G,,]2 [G,,,G,,]4 [G,,,G,,]2- | [G,,,G,,]2 [G,,,G,,]4 [G,,,G,,]2- | %35
 [G,,,G,,]2 [G,,,G,,]4 [F,,,F,,]2 | [B,,,B,,]8 | x2 [B,,,B,,]4 [B,,,B,,]2- | [B,,,B,,]2 x6 | x8 | %40
 B,,8- | B,,8 | z8 | x8 | C,8 | x8 |] x8 |] %47

